/* XPM */
static char *brinfo32_xpm[] = {
/* columns rows colors chars-per-pixel */
"32 32 8 1 ",
"  c black",
". c red",
"X c green",
"o c blue",
"O c #808080",
"+ c #C0C0C0",
"@ c white",
"# c None",
/* pixels */
"################################",
"###################OOO##########",
"##################O@@@OO########",
"#################O@@@@@@OO######",
"################O@@oo@@@@@OO####",
"###############O@@@@@oo@@+  ####",
"##############O@@oo@@@@@+ ######",
"############OOO@@@@oo@@+ #######",
"##########OO@O@@oo@@@@+ ########",
"########OO@++O@@@@oo@+ #########",
"######OO@++OO@@oo@@@@ OOO#######",
"####OO@++OOO  @@@oo@+ O++OO#####",
"##OO@++OOOO+++  @@@@ ++OO++O ###",
"OO@++OO++OO+++++  @+ OO++OOO ###",
"O@@OO++XX++OO+++++ OO++OOOOO O##",
"O@+O@@+++..++OO++OO++OOOOOOO +OO",
"O@+O++@@+++++++OO++OOOOOOOOO +O ",
"O@+O++++@@+++OO++OOOOOOOOOOO O #",
"O@+O++++++@OO++OOOOOOOOOOOOO  ##",
"O@+O+++++++O@OOOOOOOOOOOOOO  ###",
"OO+O+++++++O+OOOOOOOOOOOO   ####",
"#OOO+++++++O+OOOOOOOOOO  OO ####",
"#O++OO+++++O+OOOOOOOO  OOOO ####",
"# ++++OO+++O+OOOOOO  OOOO  #####",
"##  ++++OO+O+OOOO  OOOO  #######",
"####  ++++OO+OO  OOOO  #########",
"######  ++++O  OOOO  ###########",
"########  +++OOOO  #############",
"##########  +OO  ###############",
"############   #################",
"################################",
"################################"
};
