#define checker_width 14
#define checker_height 84
static unsigned char checker_bits[] = {
   0x55, 0x15, 0xaa, 0x2a, 0x55, 0x15, 0xaa, 0x2a, 0x55, 0x15, 0xaa, 0x2a,
   0x55, 0x15, 0xaa, 0x2a, 0x55, 0x15, 0xaa, 0x2a, 0x55, 0x15, 0xaa, 0x2a,
   0x55, 0x15, 0xaa, 0x2a, 0x55, 0x15, 0xaa, 0x2a, 0x55, 0x15, 0xaa, 0x2a,
   0x55, 0x15, 0xaa, 0x2a, 0x55, 0x15, 0xaa, 0x2a, 0x55, 0x15, 0xaa, 0x2a,
   0x55, 0x15, 0xaa, 0x2a, 0x55, 0x15, 0xaa, 0x2a, 0x55, 0x15, 0xaa, 0x2a,
   0x55, 0x15, 0xaa, 0x2a, 0x55, 0x15, 0xaa, 0x2a, 0x55, 0x15, 0xaa, 0x2a,
   0x55, 0x15, 0xaa, 0x2a, 0x55, 0x15, 0xaa, 0x2a, 0x55, 0x15, 0xaa, 0x2a,
   0x55, 0x15, 0xaa, 0x2a, 0x55, 0x15, 0xaa, 0x2a, 0x55, 0x15, 0xaa, 0x2a,
   0x55, 0x15, 0xaa, 0x2a, 0x55, 0x15, 0xaa, 0x2a, 0x55, 0x15, 0xaa, 0x2a,
   0x55, 0x15, 0xaa, 0x2a, 0x55, 0x15, 0xaa, 0x2a, 0x55, 0x15, 0xaa, 0x2a,
   0x55, 0x15, 0xaa, 0x2a, 0x55, 0x15, 0xaa, 0x2a, 0x55, 0x15, 0xaa, 0x2a,
   0x55, 0x15, 0xaa, 0x2a, 0x55, 0x15, 0xaa, 0x2a, 0x55, 0x15, 0xaa, 0x2a,
   0x55, 0x15, 0xaa, 0x2a, 0x55, 0x15, 0xaa, 0x2a, 0x55, 0x15, 0xaa, 0x2a,
   0x55, 0x15, 0xaa, 0x2a, 0x55, 0x15, 0xaa, 0x2a, 0x55, 0x15, 0xaa, 0x2a };
