/* XPM */
static char * checker_xpm[] = {
"14 84 3 1",
" 	c None",
".	c #000000",
"+	c #FFFFFF",
". . . . . . . ",
" . . . . . . .",
". . . . . . . ",
" . . . . . . .",
". . . . . . . ",
" . . . . . . .",
". . . . . . . ",
" . . . . . . .",
". . . . . . . ",
" . . . . . . .",
". . . . . . . ",
" . . . . . . .",
". . . . . . . ",
" . . . . . . .",
". . . . . . . ",
" . . . . . . .",
". . . . . . . ",
" . . . . . . .",
". . . . . . . ",
" . . . . . . .",
". . . . . . . ",
" . . . . . . .",
". . . . . . . ",
" . . . . . . .",
". . . . . . . ",
" . . . . . . .",
". . . . . . . ",
" . . . . . . .",
". . . . . . . ",
" . . . . . . .",
". . . . . . . ",
" . . . . . . .",
". ........... ",
" ..++++++++. .",
". .......++.. ",
" . ....++... .",
". ...++.... . ",
" ..++....... .",
". .++++++++.. ",
" ........... .",
". .++...... . ",
" ....++++... .",
". .......++.. ",
" ..++....... .",
". ...++.... . ",
" . ..+.++... .",
". . .+...++.. ",
" . ..+.++... .",
". ...++.... . ",
" ..++... . . .",
". ..... . . . ",
" . . . . . . .",
". . . . . . . ",
" . . . . . . .",
". . . . . . . ",
" . . . . . . .",
". . . . . . . ",
" . . . . . . .",
". . . . . . . ",
" . . . . . . .",
". . . . . . . ",
" . . . . . . .",
". . . . . . . ",
" . . . . . . .",
". . . . . . . ",
" . . . . . . .",
". . . . . . . ",
" . . . . . . .",
". . . . . . . ",
" . . . . . . .",
". . . . . . . ",
" . . . . . . .",
". . . . . . . ",
" . . . . . . .",
". . . . . . . ",
" . . . . . . .",
". . . . . . . ",
" . . . . . . .",
". . . . . . . ",
" . . . . . . .",
". . . . . . . ",
" . . . . . . .",
". . . . . . . ",
" . . . . . . ."};
