/* XPM */
static char * checkerhor_xpm[] = {
"104 14 3 1",
" 	c None",
".	c #000000",
"+	c #FFFFFF",
" . . . . . . . . . . . . . . . . . . . . . . . . . . . . . . . . . . . . . . . . . . . . . . . . . . . .",
". . . . . . . . . . . . . . . . . . . . . . . . . . . . . . . . . . . . . . . . . . . . . . . . . . . . ",
" . . . . . . . . . . . . . . . . . . . . . ................. . . . . . . . . . . . . . . . . . . . . . .",
". . . . . . . . . . . . . . . . . . . . . ..++. .+. .+. .+. . . . . . . . . . . . . . . . . . . . . . . ",
" . . . . . . . . . . . . . . . . . . . . . .++...+...+...+.. . . . . . . . . . . . . . . . . . . . . . .",
". . . . . . . . . . . . . . . . . . . . . ..+.+..+..+...+.+.. . . . . . . . . . . . . . . . . . . . . . ",
" . . . . . . . . . . . . . . . . . . . . . .+.+..+..+...+.+... . . . . . . . . . . . . . . . . . . . . .",
". . . . . . . . . . . . . . . . . . . . . ..+..+.+..+..+...+. . . . . . . . . . . . . . . . . . . . . . ",
" . . . . . . . . . . . . . . . . . . . . . .+..+.+..+..+++++.. . . . . . . . . . . . . . . . . . . . . .",
". . . . . . . . . . . . . . . . . . . . . ..+...++.+..+.....+.. . . . . . . . . . . . . . . . . . . . . ",
" . . . . . . . . . . . . . . . . . . . . . .+. .++.+..+. . .+. . . . . . . . . . . . . . . . . . . . . .",
". . . . . . . . . . . . . . . . . . . . . ............... ..... . . . . . . . . . . . . . . . . . . . . ",
" . . . . . . . . . . . . . . . . . . . . . . . . . . . . . . . . . . . . . . . . . . . . . . . . . . . .",
". . . . . . . . . . . . . . . . . . . . . . . . . . . . . . . . . . . . . . . . . . . . . . . . . . . . "};
