/* XPM */
static char * trafficg_xpm[] = {
"32 32 11 1",
" 	c None",
".	c #808080",
"+	c #FFFFFF",
"@	c #C0C0C0",
"#	c #000000",
"$	c #800000",
"%	c #C00000",
"&	c #808000",
"*	c #C0C000",
"=	c #008000",
"-	c #00FF00",
"          ..............        ",
"         .+@@@@@@@@@@@+.#       ",
"        .+@@@@@@@@@@@+..#       ",
"       .+++++++++++++...#       ",
"   .....+@@.#####.@@@...#....   ",
"   .+++.+@.#++@@.#.@@..#...##   ",
"    .@@.+.#####...#.@.#.@@#.#   ",
"     .@.+#@#$#%#..#.@.#.@#.#    ",
"     ...+#@##%#%#.#.@.#.@#.#    ",
"      ..+#@#%#%##.#.@.#.#.#     ",
"       .+@##$%#%##..@.#.##      ",
"       .+@@@.$$$#...@..##       ",
"       .+@@@@@@@@@@@@...#       ",
"   .....+@@.#####.@@@...#....   ",
"   .+++.+@.#++@@.#.@@..#...##   ",
"    .@@.+.#####...#.@.#.@@#.#   ",
"     .@.+#.#&#*#..#.@.#.@#.#    ",
"     ...+#.##*#*#.#.@.#.@#.#    ",
"      ..+#.#*#*##.#.@.#.#.#     ",
"       .+@##&*#*##..@.#.##      ",
"       .+@@@.&&&#...@..###      ",
"       .+@@@@@@@@@@@@...#       ",
"   .....+@@.#####.@@@...#....   ",
"   .+++.+@.#++@@.#.@@..#...##   ",
"    .@@.+.#####...#.@.#.@@#.#   ",
"     ...+#.#=--#..#.@.#.@#.#    ",
"     ...+#.#----#.#.@.#.@#.#    ",
"      ..+#.#----#.#.@.#.#.#     ",
"       .+@##=---##..@.#.##      ",
"       .+@@@.===#...@.###       ",
"       .+...........@.#         ",
"        ##############          "};
