/* XPM */
static char * trafficy_xpm[] = {
"32 32 11 1",
" 	c None",
".	c #808080",
"+	c #FFFFFF",
"@	c #C0C0C0",
"#	c #000000",
"$	c #800000",
"%	c #C00000",
"&	c #808000",
"*	c #FFFF00",
"=	c #008000",
"-	c #00C000",
"          ..............        ",
"         .+@@@@@@@@@@@+.#       ",
"        .+@@@@@@@@@@@+..#       ",
"       .+++++++++++++...#       ",
"   .....+@@.#####.@@@...#....   ",
"   .+++.+@.#++@@.#.@@..#...##   ",
"    .@@.+.#####...#.@.#.@@#.#   ",
"     .@.+#@#$#%#..#.@.#.@#.#    ",
"     ...+#@##%#%#.#.@.#.@#.#    ",
"      ..+#@#%#%##.#.@.#.#.#     ",
"       .+@##$%#%##..@.#.##      ",
"       .+@@@.$$$#...@..##       ",
"       .+@@@@@@@@@@@@...#       ",
"   .....+@@.#####.@@@...#....   ",
"   .+++.+@.#++@@.#.@@..#...##   ",
"    .@@.+.#####...#.@.#.@@#.#   ",
"     .@.+#.#&**#..#.@.#.@#.#    ",
"     ...+#.#****#.#.@.#.@#.#    ",
"      ..+#.#****#.#.@.#.#.#     ",
"       .+@##&***##..@.#.##      ",
"       .+@@@.&&&#...@..###      ",
"       .+@@@@@@@@@@@@...#       ",
"   .....+@@.#####.@@@...#....   ",
"   .+++.+@.#++@@.#.@@..#...##   ",
"    .@@.+.#####...#.@.#.@@#.#   ",
"     ...+#.#=#-#..#.@.#.@#.#    ",
"     ...+#.##-#-#.#.@.#.@#.#    ",
"      ..+#.#-#-##.#.@.#.#.#     ",
"       .+@##=-#-##..@.#.##      ",
"       .+@@@.===#...@.###       ",
"       .+...........@.#         ",
"        ##############          "};
